src/icons/icons_set_03/017-telechargement.svg

<svg height="50" viewBox="0 0 50 50" width="50" xmlns="http://www.w3.org/2000/svg"><path d="m23.5 27.8032955 6.984673-8.1085863c.7208922-.836892 1.9837259-.9309284 2.8206178-.2100362.836892.7208922.9309284 1.9837259.2100362 2.8206178l-10.3367064 12c-.7897872.916873-2.2065282.9277924-3.0103542.0232021l-10.66329369-12c-.73370637-.8256808-.65914639-2.0898138.16653438-2.8235202.82568081-.7337064 2.08981381-.6591464 2.82352021.1665344l7.0049727 7.8830871v-25.5545942c0-1.1045695.8954305-2 2-2s2 .8954305 2 2zm15.5 2.905195c0-1.1045695.8954305-2 2-2s2 .8954305 2 2v11.2915095c0 1.1045695-.8954305 2-2 2h-38.15625c-1.1045695 0-2-.8954305-2-2v-11.2915095c0-1.1045695.8954305-2 2-2s2 .8954305 2 2v9.2915095h34.15625z" transform="translate(3 2)"/></svg>

<?xml version="1.0" encoding="UTF-8"?>
<svg width="50px" height="50px" viewBox="0 0 50 50" version="1.1" xmlns="http://www.w3.org/2000/svg" xmlns:xlink="http://www.w3.org/1999/xlink">
    <!-- Generator: Sketch 52.4 (67378) - http://www.bohemiancoding.com/sketch -->
    <title>017-telechargement</title>
    <desc>Created with Sketch.</desc>
    <g id="017-telechargement" stroke="none" stroke-width="1" fill="none" fill-rule="evenodd">
        <g id="Group" transform="translate(3.000000, 2.000000)" fill="#000000" fill-rule="nonzero">
            <g id="023-telechargement">
                <g id="ICONSET-01">
                    <g id="023-telechargement">
                        <g id="Group-2-Copy">
                            <path d="M23.5,27.8032955 L30.484673,19.6947092 C31.2055652,18.8578172 32.4683989,18.7637808 33.3052908,19.484673 C34.1421828,20.2055652 34.2362192,21.4683989 33.515327,22.3052908 L23.1786206,34.3052908 C22.3888334,35.2221638 20.9720924,35.2330832 20.1682664,34.3284929 L9.50497271,22.3284929 C8.77126634,21.5028121 8.84582632,20.2386791 9.67150709,19.5049727 C10.4971879,18.7712663 11.7613209,18.8458263 12.4950273,19.6715071 L19.5,27.5545942 L19.5,2 C19.5,0.8954305 20.3954305,0 21.5,0 C22.6045695,0 23.5,0.8954305 23.5,2 L23.5,27.8032955 Z M39,30.7084905 C39,29.603921 39.8954305,28.7084905 41,28.7084905 C42.1045695,28.7084905 43,29.603921 43,30.7084905 L43,42 C43,43.1045695 42.1045695,44 41,44 L2.84375,44 C1.7391805,44 0.84375,43.1045695 0.84375,42 L0.84375,30.7084905 C0.84375,29.603921 1.7391805,28.7084905 2.84375,28.7084905 C3.9483195,28.7084905 4.84375,29.603921 4.84375,30.7084905 L4.84375,40 L39,40 L39,30.7084905 Z" id="Combined-Shape"></path>
                        </g>
                    </g>
                </g>
            </g>
        </g>
    </g>
</svg>
